X:1
T:Easter Chimes, LMD
T:Adapted from Eleanor Smith
T:Easter Chimes, LMD
T:Adaptation &amp;#169; 1998, Richard W. Adams (reproduce freely for Christian worship)
C:Adapted from Eleanor Smith
Z:Adaptation &#169; 1998, Richard W. Adams (reproduce freely for Christian worship)
%%score ( 1 2 ) ( 3 4 )
L:1/8
M:4/4
K:Bb
V:1 treble 
V:2 treble 
V:3 bass 
V:4 bass 
V:1
 F2 [DF]2 [DG]2 [DA]2 | [DB]2 [Ed]2 (cd) [DB]2 | [DF]2 [EG]3 [DF] [DF]2 | [EA]2 [DG]3 [DF] [DF]2 | %4
 [EF]2 [DF]2 [DG]2 [DA]2 | [DB]2 [Ee]2 [Fd]2 [Fc]2 | [FB]2 [FA]3 [Fc] [FA]2 | [=EG]2 [EG]2 F2 F2 | %8
 F2 [EF]2 [Ec]2 [EG]2 | [EA]2 [EFc]3 [FB] [FB]2 | [FB]2 [Fc]2 [Fc]2 [FB]2 | %11
 [Fc]2 [Fe]3 [Fd] [Fd]2 | [Fd]2 [Gd]3 [Gc] [EB]2 | [FB]2 [Gd]2 [Gc]2 [FB]2 | %14
 [Fd]2 [Gf]2 [Ge]2 [Bd]2 | [FB]2 [EG]4 [EA]2- | [EA]2 [DB]6 |] %17
V:2
 F2 x6 | x4 E2 x2 | x8 | x8 | x8 | x8 | x8 | x8 | x8 | x8 | x8 | x8 | x8 | x8 | x8 | x8 | x8 |] %17
V:3
 F,2 [B,,F,]2 [B,,F,]2 [B,,F,]2 | [B,,F,]2 [B,,G,]2 [B,,A,]2 [B,,B,]2 | %2
 [B,,B,]2 C,2 F,[F,B,] [F,B,]2 | [C,F,]2 B,,2- [B,,F,][B,,F,] [B,,F,]2 | %4
 [C,A,]2 [B,,B,]2 [B,,F,]2 [B,,F,]2 | [B,,F,]2 [B,,G,]2 [B,,F,]2 [D,F,]2 | %6
 [B,,D,]2 (C,2 F,)[A,C] [D,A,]2 | [C,B,]2 [C,B,]2 [F,A,]2 [F,A,]2 | F,2 [F,A,]2 [F,A,]2 [F,B,]2 | %9
 [F,C]2 B,,2 D,[F,D] [B,D]2 | [D,F,]2 [F,A,]2 [F,A,]2 [F,G,]2 | [F,A,]2 [B,,C]3 [F,B,] [D,B,]2 | %12
 [D,B,]2 [E,B,]3 [E,B,] [C,B,]2 | [D,B,]2 [E,B,]2 [E,B,]2 [D,B,]2 | %14
 [D,B,]2 [E,=B,]2 [E,C]2 [F,F]2 | [F,D]2 F,2 E,2 [F,C-]2 | [E,C]2 [B,,B,]6 |] %17
V:4
 F,2 x6 | x8 | x2 A,3 x3 | x2 B,3 x3 | x8 | x8 | x2 C3 x3 | x8 | x8 | x2 B,,2 x4 | x8 | x8 | x8 | %13
 x8 | x8 | x2 C4 x2 | x8 |] %17

